X: 37928
T: Sow's Lament For The Tatties
R: reel
M: 4/4
K: Dmajor
A>BAF EFGE|A>BAF A>Bd>e|f>g (3fga EFGE|D/E/F/G/ AE F2 D2:|
abaf efge|a>bad defd|gb/g/ fa/f/ ef/d/ d/c/B/A/|d/e/f/g/ a>g f2 d2:|

